X:111
T:Orange Grove. Ru2.111
%%VWML:RutherfordVol2-2249-p56-0
F:http://www.vwml.org/record/RutherfordVol2/2249/p56
B:RUTHERFORD Complete Collection of 200 Country Dances Vol.2; 1759.
Z:vmp.Mike Hicken 2015 www.village-music-project.org.uk
N: The final symbol of dance notation in the original is :|
M:2/4
Q:1/4=140
K:A
|:cA AB/c/|BGFE|cAAB|cea2|cA AB/c/|BGFE|ceBd|cAA2 :|
|:Acea|geef|ecce|dB B2|cAAB|ceac|BABc|A2A2 :|
|: cAfd|ecdB|cAdB|GB B2|cAfd|ecdB|c/d/e f/g/a|cA A2 :|
W:
W: The first Man turns his Partner with his right hand
W: & cast off one Cu: .|  turn left hands & cast up again :|
W: (cr)oss over two Cu: .|.  Lead to the top & Cast off :|.  Hands
W: round 6 .||.  Lead thro the 3d Cu: & cast up into the 2d
W: Cu: Place :|
T:North Ashton Frolick. Ru2.112
L:1/8
B:RUTHERFORD Complete Collection of 200 Country Dances Vol.2; 1759.
Z:vmp.Mike Hicken 2015 www.village-music-project.org.uk
N: * These three notes are not shown as a triplet in the original but have been changed to give the correct repeat.
M:6/8
Q:3/8=110
K:G
"*"(3D/E/F/|G2D G2D|GAB cBA|B2G B2G|Bcd edc|
dcB ABG|FGE D2c|BGB AFD|G3-G2 :|
|: f|gfg efg|abg fed|gfg efg|fge d3|
cBc acA|BAB gfe|dcB AGF G3 G2 :|
W:
W: The first & 2d Cu: foot it & turn Partners .|
W: The first Man foots it to the 2d Wo. his Partner to
W: the 2d Man at the same time and turn :|
W: Gallop down one Cu: up again & cast off .|.
W: Right & Left at top :|.
